; generated by Slic3r 1.0.0 on 2014-04-07 at 20:41:59

; layer_height = 0.4
; perimeters = 3
; top_solid_layers = 0
; bottom_solid_layers = 3
; fill_density = 0.4
; perimeter_speed = 30.0
; infill_speed = 60.0
; travel_speed = 120.0
; nozzle_diameter = 0.5
; filament_diameter = 3.0
; extrusion_multiplier = 1.0
; perimeters extrusion width = 0.50mm
; infill extrusion width = 0.53mm
; solid infill extrusion width = 0.53mm
; top infill extrusion width = 0.53mm
; first layer extrusion width = 0.50mm

G21 ; set units to millimeters
M107
M104 S200 T0 ; set temperature
M104 S200 T1 ; set temperature

M109 S200 T0 ; wait for temperature to be reached
M109 S200 T1 ; wait for temperature to be reached
G90 ; use absolute coordinates
G92 E0
M82 ; use absolute distances for extrusion
T0
G92 E0
G1 F1800.000 E-1.00000
G92 E0
G1 Z0.350 F7200.000
G1 X75.650 Y84.400 F7200.000
G1 E1.00000 F1800.000
G1 X76.640 Y83.600 E1.03151 F600
G1 X77.760 Y82.990 E1.06309
G1 X78.980 Y82.620 E1.09465
G1 X80.250 Y82.500 E1.12623
G1 X119.750 Y82.500 E2.10415
G1 X121.020 Y82.620 E2.13573
G1 X122.240 Y82.990 E2.16729
G1 X123.360 Y83.600 E2.19887
G1 X124.350 Y84.400 E2.23038
G1 X125.150 Y85.390 E2.26189
G1 X125.760 Y86.510 E2.29347
G1 X126.130 Y87.730 E2.32503
G1 X126.250 Y89.000 E2.35661
G1 X126.250 Y96.110 E2.53264
G1 X126.160 Y97.160 E2.55873
G1 X125.910 Y98.180 E2.58473
G1 X120.910 Y113.070 E2.97359
G1 X120.350 Y114.300 E3.00705
G1 X119.550 Y115.380 E3.04033
G1 X118.540 Y116.280 E3.07382
G1 X117.370 Y116.950 E3.10720
G1 X116.090 Y117.360 E3.14047
G1 X114.750 Y117.500 E3.17383
G1 X85.250 Y117.500 E3.90417
G1 X84.660 Y117.470 E3.91880
G1 X83.210 Y117.320 E3.95489
G1 X82.650 Y117.190 E3.96912
G1 X81.810 Y116.960 E3.99068
G1 X80.770 Y116.580 E4.01810
G1 X79.980 Y116.210 E4.03969
G1 X79.050 Y115.670 E4.06632
G1 X78.340 Y115.180 E4.08768
G1 X77.870 Y114.820 E4.10233
G1 X77.430 Y114.430 E4.11689
G1 X76.810 Y113.810 E4.13860
G1 X76.410 Y113.360 E4.15350
G1 X76.050 Y112.880 E4.16836
G1 X75.550 Y112.150 E4.19026
G1 X75.020 Y111.230 E4.21655
G1 X74.660 Y110.460 E4.23759
G1 X74.280 Y109.410 E4.26524
G1 X74.050 Y108.560 E4.28704
G1 X73.920 Y107.980 E4.30176
G1 X73.840 Y107.390 E4.31650
G1 X73.770 Y106.530 E4.33786
G1 X73.750 Y106.000 E4.35099
G1 X73.750 Y89.000 E4.77186
G1 X73.870 Y87.730 E4.80345
G1 X74.240 Y86.510 E4.83501
G1 X74.850 Y85.390 E4.86658
G1 X75.603 Y84.458 E4.89624
G1 F1800.000 E-5.10376
G92 E0
T1
G92 E0
G1 F1800.000 E-1.00000
G92 E0
G1 X102.460 Y108.750 F7200.000
G1 E1.00000 F1800.000
M204 S0.0
G1 X113.500 Y108.750 E1.27332 F600
G1 X113.500 Y109.750 E1.29808
G1 X102.728 Y109.750 E1.56478
G1 X102.460 Y109.482 E1.57415
G1 X102.460 Y108.825 E1.59042
M204 S0.0
G1 X101.960 Y108.250 F7200.000
M204 S0.0
G1 X114.000 Y108.250 E1.88851 F600
G1 X114.000 Y110.250 E1.93802
G1 X102.521 Y110.250 E2.22222
G1 X101.960 Y109.689 E2.24185
G1 X101.960 Y108.325 E2.27563
M204 S0.0
G1 X101.460 Y107.750 F7200.000
M204 S0.0
G1 X114.500 Y107.750 E2.59847 F600
G1 X114.500 Y110.750 E2.67274
G1 X102.313 Y110.750 E2.97445
G1 X101.460 Y109.896 E3.00433
G1 X101.460 Y107.825 E3.05562
M204 S0.0
G1 X101.893 Y108.000 F7200.000
G1 F1800.000 E2.05562
G92 E0
G1 X102.460 Y99.250 F7200.000
G1 E1.00000 F1800.000
M204 S0.0
G1 X102.460 Y96.000 E1.08046 F600
G1 X101.250 Y96.000 E1.11042
G1 X101.250 Y90.250 E1.25277
G1 X118.500 Y90.250 E1.67984
G1 X118.500 Y95.392 E1.80713
G1 X113.500 Y98.278 E1.95007
G1 X113.500 Y99.250 E1.97412
G1 X102.535 Y99.250 E2.24559
M204 S0.0
G1 X101.960 Y99.750 F7200.000
M204 S0.0
G1 X101.960 Y96.500 E2.32605 F600
G1 X100.750 Y96.500 E2.35601
G1 X100.750 Y89.750 E2.52312
G1 X119.000 Y89.750 E2.97494
G1 X119.000 Y95.680 E3.12176
G1 X114.000 Y98.567 E3.26469
G1 X114.000 Y99.750 E3.29398
G1 X102.035 Y99.750 E3.59021
M204 S0.0
G1 X101.460 Y100.250 F7200.000
M204 S0.0
G1 X101.460 Y97.000 E3.67067 F600
G1 X100.250 Y97.000 E3.70062
G1 X100.250 Y89.250 E3.89249
G1 X119.500 Y89.250 E4.36907
G1 X119.500 Y95.969 E4.53542
G1 X114.500 Y98.856 E4.67835
G1 X114.500 Y100.250 E4.71287
G1 X101.535 Y100.250 E5.03386
M204 S0.0
G1 X101.710 Y99.817 F7200.000
G1 X102.846 Y98.884 F7200.000
M204 S0.0
G1 X102.826 Y98.864 E5.03466 F600
G1 X102.826 Y98.052 E5.05772
G1 X103.658 Y98.884 E5.09114
G1 X104.469 Y98.884 E5.11420
G1 X102.826 Y97.241 E5.18023
G1 X102.826 Y96.429 E5.20329
G1 X105.281 Y98.884 E5.30193
G1 X106.092 Y98.884 E5.32499
G1 X101.616 Y94.408 E5.50486
G1 X101.616 Y93.596 E5.52792
G1 X106.904 Y98.884 E5.74040
G1 X107.715 Y98.884 E5.76346
G1 X101.616 Y92.785 E6.00856
G1 X101.616 Y91.973 E6.03162
G1 X108.527 Y98.884 E6.30933
G1 X109.339 Y98.884 E6.33239
G1 X101.616 Y91.161 E6.64271
G1 X101.883 Y90.616 E6.65995
G1 X110.150 Y98.884 E6.99218
G1 X110.962 Y98.884 E7.01524
G1 X102.694 Y90.616 E7.34746
G1 X103.506 Y90.616 E7.37052
G1 X111.773 Y98.884 E7.70275
G1 X112.585 Y98.884 E7.72581
G1 X104.317 Y90.616 E8.05804
G1 X105.129 Y90.616 E8.08110
G1 X113.134 Y98.621 E8.40278
G1 X113.297 Y97.973 E8.42178
G1 X105.940 Y90.616 E8.71739
G1 X106.752 Y90.616 E8.74045
G1 X113.811 Y97.676 E9.02413
G1 X114.326 Y97.379 E9.04101
G1 X107.564 Y90.616 E9.31276
G1 X108.375 Y90.616 E9.33582
G1 X114.840 Y97.082 E9.59562
G1 X115.355 Y96.784 E9.61251
G1 X109.187 Y90.616 E9.86037
G1 X109.998 Y90.616 E9.88343
G1 X115.869 Y96.487 E10.11937
G1 X116.384 Y96.190 E10.13625
G1 X110.810 Y90.616 E10.36024
G1 X111.621 Y90.616 E10.38330
G1 X116.898 Y95.893 E10.59536
G1 X117.413 Y95.596 E10.61224
G1 X112.433 Y90.616 E10.81236
G1 X113.244 Y90.616 E10.83542
G1 X117.927 Y95.299 E11.02361
G1 X118.134 Y94.694 E11.04178
G1 X114.056 Y90.616 E11.20564
G1 X114.868 Y90.616 E11.22870
G1 X118.134 Y93.882 E11.35995
G1 X118.134 Y93.071 E11.38301
G1 X115.679 Y90.616 E11.48165
G1 X116.491 Y90.616 E11.50471
G1 X118.134 Y92.259 E11.57074
G1 X118.134 Y91.448 E11.59380
G1 X117.302 Y90.616 E11.62721
G1 X118.114 Y90.616 E11.65027
G1 X118.134 Y90.636 E11.65108
M204 S0.0
G1 X102.031 Y95.634 F7200.000
M204 S0.0
G1 X101.616 Y95.219 E11.66774 F600
M204 S0.0
G1 F1800.000 E10.66774
G92 E0
G1 X102.960 Y109.250 F7200.000
G1 E1.00000 F1800.000
G1 X103.667 Y109.240 E1.01776 F600
G1 X103.687 Y109.260 E1.01847 F600
G1 X104.384 Y109.240 E1.03598 F600
G1 X104.404 Y109.260 E1.03669 F600
G1 X105.101 Y109.240 E1.05420 F600
G1 X105.121 Y109.260 E1.05491 F600
G1 X105.818 Y109.240 E1.07242 F600
G1 X105.838 Y109.260 E1.07313 F600
G1 X106.536 Y109.240 E1.09065 F600
G1 X106.556 Y109.260 E1.09136 F600
G1 X107.253 Y109.240 E1.10887 F600
G1 X107.273 Y109.260 E1.10958 F600
G1 X107.970 Y109.240 E1.12709 F600
G1 X107.990 Y109.260 E1.12780 F600
G1 X108.687 Y109.240 E1.14531 F600
G1 X108.707 Y109.260 E1.14602 F600
G1 X109.404 Y109.240 E1.16354 F600
G1 X109.424 Y109.260 E1.16425 F600
G1 X110.121 Y109.240 E1.18176 F600
G1 X110.141 Y109.260 E1.18247 F600
G1 X110.839 Y109.240 E1.19998 F600
G1 X110.859 Y109.260 E1.20069 F600
G1 X111.556 Y109.240 E1.21820 F600
G1 X111.576 Y109.260 E1.21891 F600
G1 X112.273 Y109.240 E1.23642 F600
G1 X112.293 Y109.260 E1.23713 F600
G1 X112.990 Y109.240 E1.25465 F600
G1 X113.000 Y109.250 E1.25500 F600
G1 X102.970 Y109.260 F7200.000
G1 X102.960 Y109.250 E1.25536 F600
G1 F1800.000 E-8.74464
G92 E0
T0
G92 E0
G1 X90.260 Y109.482 F7200.000
G1 E10.00000 F1800.000
M204 S0.0
G1 X89.992 Y109.750 E10.00938 F600
G1 X85.304 Y109.750 E10.12545
G1 X84.599 Y109.688 E10.14297
G1 X83.970 Y109.520 E10.15909
G1 X83.378 Y109.244 E10.17525
G1 X82.842 Y108.869 E10.19145
G1 X82.381 Y108.408 E10.20758
G1 X82.007 Y107.873 E10.22376
G1 X81.731 Y107.281 E10.23992
G1 X81.562 Y106.650 E10.25609
G1 X81.500 Y105.945 E10.27360
G1 X81.500 Y90.250 E10.66218
G1 X98.750 Y90.250 E11.08925
G1 X98.750 Y96.000 E11.23160
G1 X90.260 Y96.000 E11.44180
G1 X90.260 Y109.407 E11.77373
M204 S0.0
G1 X90.760 Y109.689 F7200.000
M204 S0.0
G1 X90.199 Y110.250 E11.79336 F600
G1 X85.282 Y110.250 E11.91510
G1 X84.512 Y110.183 E11.93424
G1 X83.798 Y109.991 E11.95253
G1 X83.127 Y109.679 E11.97086
G1 X82.519 Y109.253 E11.98922
G1 X81.997 Y108.731 E12.00752
G1 X81.572 Y108.124 E12.02586
G1 X81.259 Y107.453 E12.04419
G1 X81.067 Y106.737 E12.06252
G1 X81.000 Y105.967 E12.08166
G1 X81.000 Y89.750 E12.48316
G1 X99.250 Y89.750 E12.93498
G1 X99.250 Y96.500 E13.10210
G1 X90.760 Y96.500 E13.31229
G1 X90.760 Y109.614 E13.63697
M204 S0.0
G1 X91.260 Y109.896 F7200.000
M204 S0.0
G1 X90.406 Y110.750 E13.66685 F600
G1 X85.260 Y110.750 E13.79427
G1 X84.424 Y110.677 E13.81503
G1 X83.626 Y110.463 E13.83548
G1 X82.876 Y110.113 E13.85598
G1 X82.197 Y109.638 E13.87651
G1 X81.612 Y109.053 E13.89697
G1 X81.137 Y108.375 E13.91748
G1 X80.787 Y107.624 E13.93797
G1 X80.573 Y106.825 E13.95847
G1 X80.500 Y105.989 E13.97923
G1 X80.500 Y89.250 E14.39365
G1 X99.750 Y89.250 E14.87023
G1 X99.750 Y97.000 E15.06210
G1 X91.260 Y97.000 E15.27230
G1 X91.260 Y109.821 E15.58972
M204 S0.0
G1 X90.760 Y109.896 F7200.000
G1 X83.125 Y108.620 F7200.000
M204 S0.0
G1 X82.630 Y108.125 E15.60961 F600
M204 S0.0
G1 X81.931 Y106.615 F7200.000
M204 S0.0
G1 X84.635 Y109.319 E15.71816 F600
G1 X85.511 Y109.384 E15.74309
G1 X81.866 Y105.739 E15.88940
G1 X81.866 Y104.928 E15.91242
G1 X86.322 Y109.384 E16.09129
G1 X87.132 Y109.384 E16.11430
G1 X81.866 Y104.118 E16.32572
G1 X81.866 Y103.307 E16.34874
G1 X87.943 Y109.384 E16.59270
G1 X88.754 Y109.384 E16.61572
G1 X81.866 Y102.496 E16.89223
G1 X81.866 Y101.685 E16.91525
G1 X89.565 Y109.384 E17.22432
G1 X89.894 Y108.902 E17.24088
G1 X81.866 Y100.874 E17.56315
G1 X81.866 Y100.064 E17.58616
G1 X89.894 Y108.091 E17.90843
G1 X89.894 Y107.280 E17.93145
G1 X81.866 Y99.253 E18.25372
G1 X81.866 Y98.442 E18.27674
G1 X89.894 Y106.470 E18.59901
G1 X89.894 Y105.659 E18.62202
G1 X81.866 Y97.631 E18.94429
G1 X81.866 Y96.821 E18.96731
G1 X89.894 Y104.848 E19.28958
G1 X89.894 Y104.037 E19.31260
G1 X81.866 Y96.010 E19.63487
G1 X81.866 Y95.199 E19.65788
G1 X89.894 Y103.226 E19.98015
G1 X89.894 Y102.416 E20.00317
G1 X81.866 Y94.388 E20.32544
G1 X81.866 Y93.577 E20.34846
G1 X89.894 Y101.605 E20.67073
G1 X89.894 Y100.794 E20.69374
G1 X81.866 Y92.767 E21.01601
G1 X81.866 Y91.956 E21.03903
G1 X89.894 Y99.983 E21.36130
G1 X89.894 Y99.173 E21.38432
G1 X81.866 Y91.145 E21.70659
G1 X82.148 Y90.616 E21.72360
G1 X89.894 Y98.362 E22.03455
G1 X89.894 Y97.551 E22.05757
G1 X82.959 Y90.616 E22.33597
G1 X83.770 Y90.616 E22.35899
G1 X89.894 Y96.740 E22.60484
G1 X89.894 Y95.929 E22.62785
G1 X84.581 Y90.616 E22.84116
G1 X85.391 Y90.616 E22.86417
G1 X90.409 Y95.634 E23.06561
G1 X91.220 Y95.634 E23.08862
G1 X86.202 Y90.616 E23.29006
G1 X87.013 Y90.616 E23.31308
G1 X92.030 Y95.634 E23.51451
G1 X92.841 Y95.634 E23.53753
G1 X87.824 Y90.616 E23.73896
G1 X88.634 Y90.616 E23.76198
G1 X93.652 Y95.634 E23.96341
G1 X94.463 Y95.634 E23.98643
G1 X89.445 Y90.616 E24.18787
G1 X90.256 Y90.616 E24.21088
G1 X95.274 Y95.634 E24.41232
G1 X96.084 Y95.634 E24.43533
G1 X91.067 Y90.616 E24.63677
G1 X91.878 Y90.616 E24.65978
G1 X96.895 Y95.634 E24.86122
G1 X97.706 Y95.634 E24.88424
G1 X92.688 Y90.616 E25.08567
G1 X93.499 Y90.616 E25.10869
G1 X98.384 Y95.501 E25.30479
G1 X98.384 Y94.690 E25.32780
G1 X94.310 Y90.616 E25.49135
G1 X95.121 Y90.616 E25.51437
G1 X98.384 Y93.879 E25.64537
G1 X98.384 Y93.069 E25.66838
G1 X95.931 Y90.616 E25.76683
G1 X96.742 Y90.616 E25.78985
G1 X98.384 Y92.258 E25.85575
G1 X98.384 Y91.447 E25.87877
G1 X97.553 Y90.616 E25.91212
G1 X98.364 Y90.616 E25.93513
G1 X98.384 Y90.636 E25.93594
M204 S0.0
M106 S255
G1 F1800.000 E24.93594
G92 E0
G1 Z0.750 F7200.000
G1 X98.750 Y90.250 F7200.000
G1 E1.00000 F1800.000
M204 S0.0
G1 X98.750 Y96.000 E1.16269 F1673.974
G1 X90.260 Y96.000 E1.40291
G1 X90.260 Y109.482 E1.78438
G1 X89.992 Y109.750 E1.79510
G1 X85.301 Y109.750 E1.92783
G1 X84.597 Y109.688 E1.94783
G1 X83.971 Y109.521 E1.96616
G1 X83.379 Y109.245 E1.98463
G1 X82.841 Y108.868 E2.00324
G1 X82.382 Y108.409 E2.02158
G1 X82.007 Y107.873 E2.04011
G1 X81.731 Y107.281 E2.05859
G1 X81.562 Y106.650 E2.07706
G1 X81.500 Y105.945 E2.09708
G1 X81.500 Y90.250 E2.54117
G1 X98.675 Y90.250 E3.02712
M204 S0.0
G1 X99.250 Y89.750 F7200.000
M204 S0.0
G1 X99.250 Y96.500 E3.21811 F1673.974
G1 X90.760 Y96.500 E3.45833
G1 X90.760 Y109.689 E3.83151
G1 X90.199 Y110.250 E3.85394
G1 X85.279 Y110.250 E3.99315
G1 X84.510 Y110.183 E4.01501
G1 X83.799 Y109.992 E4.03582
G1 X83.128 Y109.680 E4.05676
G1 X82.518 Y109.252 E4.07785
G1 X81.998 Y108.732 E4.09866
G1 X81.572 Y108.124 E4.11967
G1 X81.259 Y107.453 E4.14062
G1 X81.067 Y106.737 E4.16157
G1 X81.000 Y105.967 E4.18344
G1 X81.000 Y89.750 E4.64230
G1 X99.175 Y89.750 E5.15655
M204 S0.0
G1 X99.750 Y89.250 F7200.000
M204 S0.0
G1 X99.750 Y97.000 E5.37583 F1394.978
G1 X91.260 Y97.000 E5.61605
G1 X91.260 Y109.896 E5.98094
G1 X90.406 Y110.750 E6.01510
G1 X85.257 Y110.750 E6.16078
G1 X84.431 Y110.679 E6.18426
G1 X83.628 Y110.464 E6.20778
G1 X82.881 Y110.117 E6.23107
G1 X82.195 Y109.637 E6.25476
G1 X81.613 Y109.054 E6.27805
G1 X81.137 Y108.375 E6.30154
G1 X80.787 Y107.624 E6.32496
G1 X80.573 Y106.825 E6.34839
G1 X80.500 Y105.989 E6.37212
G1 X80.500 Y89.250 E6.84574
G1 X99.675 Y89.250 E7.38828
M204 S0.0
G1 X99.500 Y89.683 F7200.000
G1 X93.785 Y90.607 F7200.000
M204 S0.0
G1 X81.857 Y102.535 E7.89061 F3347.947
G1 X81.857 Y101.790 E7.91277
G1 X93.040 Y90.607 E8.38376
G1 X92.296 Y90.607 E8.40593
G1 X81.857 Y101.046 E8.84557
G1 X81.857 Y100.302 E8.86773
G1 X91.552 Y90.607 E9.27604
G1 X90.808 Y90.607 E9.29820
G1 X81.857 Y99.558 E9.67516
G1 X81.857 Y98.813 E9.69732
G1 X90.063 Y90.607 E10.04294
G1 X89.319 Y90.607 E10.06510
G1 X81.857 Y98.069 E10.37938
G1 X81.857 Y97.325 E10.40154
G1 X88.575 Y90.607 E10.68447
G1 X87.831 Y90.607 E10.70663
G1 X81.857 Y96.581 E10.95822
G1 X81.857 Y95.836 E10.98038
G1 X87.086 Y90.607 E11.20062
G1 X86.342 Y90.607 E11.22279
G1 X81.857 Y95.092 E11.41169
G1 X81.857 Y94.348 E11.43385
G1 X85.598 Y90.607 E11.59141
G1 X84.854 Y90.607 E11.61357
G1 X81.857 Y93.604 E11.73978
G1 X81.857 Y92.860 E11.76195
G1 X84.110 Y90.607 E11.85682
G1 X83.365 Y90.607 E11.87898
G1 X81.857 Y92.115 E11.94251
G1 X81.857 Y91.371 E11.96467
G1 X82.621 Y90.607 E11.99685
G1 X81.877 Y90.607 E12.01902
G1 X81.857 Y90.627 E12.01986
M204 S0.0
G1 X97.679 Y95.643 F7200.000
M204 S0.0
G1 X98.393 Y94.929 E12.04993 F3347.947
G1 X98.393 Y94.185 E12.07209
G1 X96.935 Y95.643 E12.13350
G1 X96.191 Y95.643 E12.15566
G1 X98.393 Y93.441 E12.24842
G1 X98.393 Y92.696 E12.27058
G1 X95.446 Y95.643 E12.39468
G1 X94.702 Y95.643 E12.41684
G1 X98.393 Y91.952 E12.57228
G1 X98.393 Y91.208 E12.59445
G1 X93.958 Y95.643 E12.78123
G1 X93.214 Y95.643 E12.80339
G1 X98.250 Y90.607 E13.01549
G1 X97.506 Y90.607 E13.03766
G1 X92.470 Y95.643 E13.24976
G1 X91.725 Y95.643 E13.27192
G1 X96.761 Y90.607 E13.48402
G1 X96.017 Y90.607 E13.50618
G1 X90.981 Y95.643 E13.71828
G1 X90.237 Y95.643 E13.74044
G1 X95.273 Y90.607 E13.95254
G1 X94.529 Y90.607 E13.97471
G1 X81.857 Y103.279 E14.50838
G1 X81.857 Y104.023 E14.53055
G1 X89.903 Y95.977 E14.86941
G1 X89.903 Y96.721 E14.89157
G1 X81.857 Y104.767 E15.23043
G1 X81.857 Y105.511 E15.25259
G1 X89.903 Y97.465 E15.59146
G1 X89.903 Y98.210 E15.61362
G1 X81.883 Y106.230 E15.95138
G1 X81.989 Y106.868 E15.97064
G1 X89.903 Y98.954 E16.30392
G1 X89.903 Y99.698 E16.32608
G1 X82.187 Y107.414 E16.65106
G1 X82.455 Y107.891 E16.66733
G1 X89.903 Y100.442 E16.98101
G1 X89.903 Y101.187 E17.00317
G1 X82.791 Y108.299 E17.30270
G1 X83.171 Y108.663 E17.31838
G1 X89.903 Y101.931 E17.60191
G1 X89.903 Y102.675 E17.62407
G1 X83.616 Y108.962 E17.88883
G1 X84.129 Y109.194 E17.90558
G1 X89.903 Y103.419 E18.14876
G1 X89.903 Y104.163 E18.17092
G1 X84.725 Y109.341 E18.38899
G1 X85.418 Y109.393 E18.40967
G1 X89.903 Y104.908 E18.59857
G1 X89.903 Y105.652 E18.62073
G1 X86.162 Y109.393 E18.77829
G1 X86.906 Y109.393 E18.80045
G1 X89.903 Y106.396 E18.92667
G1 X89.903 Y107.140 E18.94883
G1 X87.650 Y109.393 E19.04370
G1 X88.395 Y109.393 E19.06587
G1 X89.903 Y107.885 E19.12939
G1 X89.903 Y108.629 E19.15156
G1 X89.139 Y109.393 E19.18374
G1 X89.883 Y109.393 E19.20591
G1 X89.903 Y109.373 E19.20675
M204 S0.0
G1 F1800.000 E9.20675
G92 E0
T1
G92 E0
G1 X102.460 Y109.482 F7200.000
G1 E10.00000 F1800.000
M204 S0.0
G1 X102.460 Y108.750 E10.02072 F1673.974
G1 X113.500 Y108.750 E10.33309
