; generated by Slic3r 1.0.0 on 2014-04-05 at 00:20:17

; layer_height = 0.4
; perimeters = 3
; top_solid_layers = 3
; bottom_solid_layers = 0
; fill_density = 0.4
; perimeter_speed = 30.0
; infill_speed = 60.0
; travel_speed = 120.0
; nozzle_diameter = 0.5
; filament_diameter = 3.0
; extrusion_multiplier = 1.0
; perimeters extrusion width = 0.50mm
; infill extrusion width = 0.53mm
; solid infill extrusion width = 0.53mm
; top infill extrusion width = 0.53mm
; first layer extrusion width = 0.50mm

G21 ; set units to millimeters
M104 S200 T0 ; set temperature
M104 S200 T1 ; set temperature

M109 S200 T0 ; wait for temperature to be reached
M109 S200 T1 ; wait for temperature to be reached
G90 ; use absolute coordinates
G92 E0
M82 ; use absolute distances for extrusion
T0
G92 E0
M106 S255
G1 F1800.000 E-1.00000
G92 E0
G1 Z7.400 F7200.000
G1 F1800.000 E-9.00000
G92 E0
T1
G92 E0
G1 F1800.000 E-1.00000
G92 E0
G1 X102.460 Y108.750 F7200.000
G1 E1.00000 F1800.000
M204 S0.0
G1 X113.500 Y108.750 E1.31237 F1450.713
G1 X113.500 Y109.750 E1.34067
G1 X102.728 Y109.750 E1.64546
G1 X102.460 Y109.482 E1.65617
G1 X102.460 Y108.825 E1.67477
M204 S0.0
G1 X101.960 Y108.250 F7200.000
M204 S0.0
G1 X114.000 Y108.250 E2.01544 F1450.713
G1 X114.000 Y110.250 E2.07202
G1 X102.521 Y110.250 E2.39683
G1 X101.960 Y109.689 E2.41926
G1 X101.960 Y108.325 E2.45786
M204 S0.0
G1 X101.460 Y107.750 F7200.000
M204 S0.0
G1 X114.500 Y107.750 E2.82682 F1450.713
G1 X114.500 Y110.750 E2.91170
G1 X102.313 Y110.750 E3.25651
G1 X101.460 Y109.896 E3.29067
G1 X101.460 Y107.825 E3.34928
M204 S0.0
G1 X101.893 Y108.000 F7200.000
G1 F1800.000 E2.34928
G92 E0
G1 X102.460 Y99.250 F7200.000
G1 E1.00000 F1800.000
M204 S0.0
G1 X102.460 Y96.000 E1.09196 F1450.713
G1 X101.250 Y96.000 E1.12619
G1 X101.250 Y90.250 E1.28888
G1 X118.500 Y90.250 E1.77696
G1 X118.500 Y95.392 E1.92243
G1 X113.500 Y98.278 E2.08579
G1 X113.500 Y99.250 E2.11328
G1 X102.535 Y99.250 E2.42353
M204 S0.0
G1 X101.960 Y99.750 F7200.000
M204 S0.0
G1 X101.960 Y96.500 E2.51549 F1450.713
G1 X100.750 Y96.500 E2.54972
G1 X100.750 Y89.750 E2.74071
G1 X119.000 Y89.750 E3.25708
G1 X119.000 Y95.680 E3.42487
G1 X114.000 Y98.567 E3.58822
G1 X114.000 Y99.750 E3.62170
G1 X102.035 Y99.750 E3.96024
M204 S0.0
G1 X101.460 Y100.250 F7200.000
M204 S0.0
G1 X101.460 Y97.000 E4.05219 F1208.927
G1 X100.250 Y97.000 E4.08643
G1 X100.250 Y89.250 E4.30571
G1 X119.500 Y89.250 E4.85037
G1 X119.500 Y95.969 E5.04048
G1 X114.500 Y98.856 E5.20383
G1 X114.500 Y100.250 E5.24329
G1 X101.535 Y100.250 E5.61012
M204 S0.0
G1 X101.710 Y99.817 F7200.000
G1 X106.025 Y96.893 F7200.000
M204 S0.0
G1 X106.005 Y96.873 E5.61099 F2901.426
G1 X106.005 Y96.108 E5.63442
G1 X106.790 Y96.893 E5.66841
G1 X107.555 Y96.893 E5.69184
G1 X106.005 Y95.343 E5.75896
G1 X106.005 Y94.578 E5.78239
G1 X108.320 Y96.893 E5.88265
G1 X109.085 Y96.893 E5.90607
G1 X106.005 Y93.812 E6.03946
G1 X106.005 Y93.047 E6.06289
G1 X109.850 Y96.893 E6.22940
G1 X110.615 Y96.893 E6.25283
G1 X106.005 Y92.282 E6.45248
G1 X106.005 Y91.517 E6.47590
G1 X111.381 Y96.893 E6.70868
M204 S0.0
G1 X111.882 Y97.394 F7200.000
M204 S0.0
G1 X112.956 Y98.468 E6.75517 F2901.426
G1 X113.258 Y98.006 E6.77209
G1 X106.005 Y90.752 E7.08617
G1 X106.625 Y90.607 E7.10567
G1 X113.743 Y97.726 E7.41390
G1 X114.229 Y97.446 E7.43105
G1 X107.390 Y90.607 E7.72716
G1 X108.155 Y90.607 E7.75059
G1 X114.714 Y97.166 E8.03456
G1 X115.199 Y96.885 E8.05171
G1 X108.920 Y90.607 E8.32357
G1 X109.685 Y90.607 E8.34699
G1 X115.684 Y96.605 E8.60672
G1 X115.820 Y95.977 E8.62641
G1 X110.450 Y90.607 E8.85893
G1 X111.216 Y90.607 E8.88235
G1 X116.181 Y95.572 E9.09733
G1 X116.946 Y95.572 E9.12076
G1 X111.981 Y90.607 E9.33574
G1 X112.746 Y90.607 E9.35917
G1 X117.624 Y95.485 E9.57039
G1 X118.108 Y95.204 E9.58753
G1 X113.532 Y90.628 E9.78567
G1 X114.297 Y90.628 E9.80910
G1 X118.143 Y94.474 E9.97562
G1 X118.143 Y93.709 E9.99904
G1 X115.063 Y90.628 E10.13243
G1 X115.828 Y90.628 E10.15585
G1 X118.143 Y92.943 E10.25611
G1 X118.143 Y92.178 E10.27954
G1 X116.593 Y90.628 E10.34666
G1 X117.358 Y90.628 E10.37009
G1 X118.143 Y91.413 E10.40408
G1 X118.143 Y90.648 E10.42751
G1 X118.123 Y90.628 E10.42837
M204 S0.0
G1 F1800.000 E9.42837
G92 E0
G1 X111.882 Y98.160 F7200.000
G1 E1.00000 F1800.000
M204 S0.0
G1 X112.190 Y98.468 E1.01336 F2901.426
M204 S0.0
G1 X112.977 Y98.692 F7200.000
M204 S0.0
G1 X112.926 Y98.883 E1.01918 F2901.426
M204 S0.0
G1 X111.658 Y97.227 F7200.000
M204 S0.0
G1 X110.894 Y97.431 E1.04244 F2901.426
G1 X110.580 Y97.117 E1.05551
G1 X109.845 Y97.117 E1.07712
G1 X110.526 Y97.799 E1.10547
G1 X110.294 Y98.668 E1.13194
G1 X110.509 Y98.883 E1.14088
G1 X108.671 Y98.883 E1.19490
G1 X107.784 Y97.996 E1.23181
G1 X108.007 Y97.117 E1.25848
M204 S0.0
G1 X105.781 Y95.992 F7200.000
M204 S0.0
G1 X104.602 Y94.813 E1.30750 F2901.426
G1 X104.835 Y93.944 E1.33397
G1 X103.562 Y92.671 E1.38690
G1 X102.693 Y92.904 E1.41337
G1 X101.617 Y91.829 E1.45810
G1 X101.617 Y92.563 E1.47970
G1 X102.325 Y93.272 E1.50915
G1 X102.092 Y94.141 E1.53562
G1 X103.365 Y95.414 E1.58855
G1 X104.234 Y95.181 E1.61502
G1 X105.507 Y96.454 E1.66795
G1 X105.274 Y97.323 E1.69441
G1 X106.547 Y98.596 E1.74735
G1 X107.416 Y98.363 E1.77381
G1 X107.937 Y98.883 E1.79544
G1 X106.099 Y98.883 E1.84946
G1 X104.907 Y97.691 E1.89906
G1 X104.037 Y97.923 E1.92552
G1 X102.827 Y96.713 E1.97587
G1 X102.827 Y97.448 E1.99748
G1 X103.670 Y98.291 E2.03254
G1 X103.511 Y98.883 E2.05057
M204 S0.0
G1 X102.827 Y96.418 F7200.000
M204 S0.0
G1 X102.998 Y95.781 E2.06997 F2901.426
G1 X101.725 Y94.508 E2.12290
G1 X101.617 Y94.537 E2.12618
M204 S0.0
G1 X101.617 Y90.895 F7200.000
M204 S0.0
G1 X101.653 Y90.762 E2.13024 F2901.426
G1 X101.617 Y90.726 E2.13172
M204 S0.0
G1 X105.781 Y91.216 F7200.000
M204 S0.0
G1 X105.399 Y90.834 E2.14759 F2901.426
G1 X104.530 Y91.067 E2.17406
G1 X104.080 Y90.617 E2.19277
G1 X103.345 Y90.617 E2.21438
G1 X104.162 Y91.434 E2.24838
G1 X103.929 Y92.304 E2.27485
G1 X105.202 Y93.577 E2.32778
G1 X105.781 Y93.422 E2.34539
M204 S0.0
G1 F1800.000 E1.34539
G92 E0
G1 X105.818 Y109.240 F7200.000
G1 E1.00000 F1800.000
G1 X105.838 Y109.260 E1.00081 F967.142
G1 X106.536 Y109.240 E1.02083 F967.142
G1 X106.556 Y109.260 E1.02164 F967.142
G1 X107.253 Y109.240 E1.04165 F967.142
G1 X107.273 Y109.260 E1.04246 F967.142
G1 X107.970 Y109.240 E1.06248 F967.142
G1 X107.990 Y109.260 E1.06329 F967.142
G1 X108.687 Y109.240 E1.08330 F967.142
G1 X108.707 Y109.260 E1.08411 F967.142
G1 X109.404 Y109.240 E1.10413 F967.142
G1 X109.424 Y109.260 E1.10494 F967.142
G1 X110.121 Y109.240 E1.12495 F967.142
G1 X110.141 Y109.260 E1.12576 F967.142
G1 X110.839 Y109.240 E1.14578 F967.142
G1 X110.859 Y109.260 E1.14659 F967.142
G1 X111.556 Y109.240 E1.16660 F967.142
G1 X111.576 Y109.260 E1.16741 F967.142
G1 X112.273 Y109.240 E1.18743 F967.142
G1 X112.293 Y109.260 E1.18824 F967.142
G1 X112.990 Y109.240 E1.20825 F967.142
G1 X113.000 Y109.250 E1.20866 F967.142
G1 X105.818 Y109.240 F7200.000
G1 X105.121 Y109.260 E1.22867 F967.142
G1 X105.101 Y109.240 E1.22949 F967.142
G1 X104.404 Y109.260 E1.24950 F967.142
G1 X104.384 Y109.240 E1.25031 F967.142
G1 X103.687 Y109.260 E1.27032 F967.142
G1 X103.667 Y109.240 E1.27114 F967.142
G1 X102.960 Y109.250 E1.29143 F967.142
G1 X102.970 Y109.260 E1.29184 F967.142
G1 F1800.000 E0.29184
G92 E0
G1 X116.309 Y96.233 F7200.000
G1 E1.00000 F1800.000
M204 S0.0
G1 X116.110 Y96.034 E1.00828 F2901.426
G1 X116.044 Y96.051 E1.01028
G1 X116.607 Y95.796 E1.02846
G1 X116.775 Y95.964 E1.03544
M204 S0.0
G1 F1800.000 E-8.96456
G92 E0
T0
G92 E0
G1 X91.725 Y96.000 F7200.000
G1 E10.00000 F1800.000
M204 S0.0
G1 X90.260 Y96.000 E10.04145 F1450.713
G1 X90.260 Y109.482 E10.42292
G1 X89.992 Y109.750 E10.43364
G1 X88.527 Y109.750 E10.47508
G1 X88.527 Y103.750 E10.64485
G1 X83.240 Y103.750 E10.79445
G1 X83.235 Y109.143 E10.94705
G1 X82.817 Y108.851 E10.96149
G1 X82.585 Y108.626 E10.97063
G1 X82.391 Y108.421 E10.97862
G1 X82.007 Y107.873 E10.99757
G1 X81.731 Y107.281 E11.01604
G1 X81.562 Y106.650 E11.03451
G1 X81.500 Y105.945 E11.05453
G1 X81.500 Y90.250 E11.49862
G1 X91.725 Y90.250 E11.78793
G1 X91.725 Y95.925 E11.94850
M204 S0.0
G1 X92.225 Y95.250 F7200.000
M204 S0.0
G1 X99.250 Y95.250 E12.14727 F1450.713
G1 X99.250 Y96.500 E12.18264
G1 X90.760 Y96.500 E12.42286
G1 X90.760 Y109.689 E12.79604
G1 X90.199 Y110.250 E12.81847
G1 X88.027 Y110.250 E12.87992
G1 X88.027 Y104.250 E13.04969
G1 X83.737 Y104.250 E13.17109
G1 X83.736 Y109.991 E13.33353
G1 X83.045 Y109.632 E13.35557
G1 X82.494 Y109.235 E13.37477
G1 X82.229 Y108.978 E13.38523
G1 X82.002 Y108.738 E13.39457
G1 X81.572 Y108.124 E13.41580
G1 X81.259 Y107.453 E13.43675
G1 X81.067 Y106.737 E13.45770
G1 X81.000 Y105.967 E13.47957
G1 X81.000 Y89.750 E13.93843
G1 X92.225 Y89.750 E14.25603
G1 X92.225 Y95.175 E14.40953
M204 S0.0
G1 X92.725 Y94.750 F7200.000
M204 S0.0
G1 X99.750 Y94.750 E14.60829 F1208.927
G1 X99.750 Y97.000 E14.67195
G1 X91.260 Y97.000 E14.91217
G1 X91.260 Y109.896 E15.27707
G1 X90.406 Y110.750 E15.31122
G1 X87.527 Y110.750 E15.39268
G1 X87.527 Y104.750 E15.56244
G1 X84.234 Y104.750 E15.65563
G1 X84.237 Y110.643 E15.82238
G1 X83.570 Y110.443 E15.84208
G1 X82.982 Y110.173 E15.86041
G1 X82.622 Y109.954 E15.87232
G1 X82.155 Y109.603 E15.88884
G1 X81.614 Y109.055 E15.91063
G1 X81.137 Y108.375 E15.93414
G1 X80.787 Y107.624 E15.95757
G1 X80.573 Y106.825 E15.98099
G1 X80.500 Y105.989 E16.00472
G1 X80.500 Y89.250 E16.47834
G1 X92.725 Y89.250 E16.82424
G1 X92.725 Y94.675 E16.97773
M204 S0.0
G1 X92.725 Y95.250 F7200.000
G1 F1800.000 E15.97773
G92 E0
G1 X99.747 Y94.375 F7200.000
G1 E1.00000 F1800.000
M204 S0.0
G1 X99.872 Y94.372 E1.00354 F1208.927
G1 X99.872 Y89.128 E1.15193
M204 S0.0
G1 F1800.000 E0.15193
G92 E0
G1 X89.587 Y90.617 F7200.000
G1 E1.00000 F1800.000
M204 S0.0
G1 X89.544 Y90.779 E1.00493 F2901.426
G1 X90.817 Y92.052 E1.05786
G1 X91.358 Y91.906 E1.07434
G1 X91.358 Y94.430 E1.14854
G1 X90.216 Y93.288 E1.19603
G1 X90.449 Y92.419 E1.22249
G1 X89.176 Y91.146 E1.27542
G1 X88.307 Y91.379 E1.30189
G1 X87.545 Y90.617 E1.33358
G1 X85.708 Y90.617 E1.38761
G1 X85.797 Y90.707 E1.39134
G1 X86.132 Y90.617 E1.40153
G1 X86.810 Y90.617 E1.42146
G1 X87.940 Y91.747 E1.46844
G1 X87.707 Y92.616 E1.49490
G1 X88.980 Y93.889 E1.54783
G1 X89.849 Y93.656 E1.57430
G1 X91.122 Y94.929 E1.62723
G1 X90.933 Y95.633 E1.64868
M204 S0.0
G1 X89.893 Y96.334 F7200.000
M204 S0.0
G1 X89.652 Y96.398 E1.65602 F2901.426
G1 X88.379 Y95.126 E1.70895
G1 X88.612 Y94.256 E1.73542
G1 X87.339 Y92.983 E1.78835
G1 X86.470 Y93.216 E1.81481
G1 X85.197 Y91.943 E1.86775
G1 X85.430 Y91.074 E1.89421
G1 X84.973 Y90.617 E1.91322
G1 X82.863 Y90.617 E1.97527
G1 X82.687 Y91.271 E1.99518
G1 X83.960 Y92.544 E2.04812
G1 X84.830 Y92.311 E2.07458
G1 X86.102 Y93.584 E2.12751
G1 X85.870 Y94.453 E2.15398
G1 X87.142 Y95.726 E2.20691
G1 X88.012 Y95.493 E2.23338
G1 X89.285 Y96.766 E2.28631
G1 X89.052 Y97.635 E2.31277
G1 X89.893 Y98.477 E2.34776
G1 X89.893 Y100.314 E2.40178
G1 X89.724 Y100.145 E2.40881
G1 X89.893 Y99.514 E2.42800
G1 X89.893 Y99.211 E2.43691
G1 X88.684 Y98.003 E2.48718
G1 X87.815 Y98.236 E2.51364
G1 X86.542 Y96.963 E2.56657
G1 X86.775 Y96.093 E2.59304
G1 X85.502 Y94.821 E2.64597
G1 X84.633 Y95.053 E2.67244
G1 X83.360 Y93.781 E2.72537
G1 X83.593 Y92.911 E2.75184
G1 X82.320 Y91.638 E2.80477
G1 X81.867 Y91.760 E2.81856
G1 X81.867 Y94.125 E2.88810
G1 X82.123 Y94.381 E2.89876
G1 X82.992 Y94.148 E2.92522
G1 X84.265 Y95.421 E2.97816
G1 X84.032 Y96.290 E3.00462
G1 X85.305 Y97.563 E3.05755
G1 X86.175 Y97.330 E3.08402
G1 X87.447 Y98.603 E3.13695
G1 X87.214 Y99.472 E3.16342
G1 X88.487 Y100.745 E3.21635
G1 X89.357 Y100.512 E3.24281
G1 X89.893 Y101.049 E3.26512
G1 X89.893 Y103.058 E3.32421
G1 X89.160 Y103.255 E3.34654
G1 X87.887 Y101.982 E3.39947
G1 X88.120 Y101.113 E3.42593
G1 X86.847 Y99.840 E3.47887
G1 X85.978 Y100.073 E3.50533
G1 X84.705 Y98.800 E3.55826
G1 X84.938 Y97.931 E3.58473
G1 X83.665 Y96.658 E3.63766
G1 X82.796 Y96.891 E3.66413
G1 X81.867 Y95.962 E3.70274
G1 X81.867 Y96.697 E3.72435
G1 X82.428 Y97.258 E3.74769
G1 X82.195 Y98.127 E3.77416
G1 X83.468 Y99.400 E3.82709
G1 X84.337 Y99.167 E3.85355
G1 X85.610 Y100.440 E3.90649
G1 X85.377 Y101.310 E3.93295
G1 X86.650 Y102.582 E3.98588
G1 X87.519 Y102.349 E4.01235
G1 X88.553 Y103.383 E4.05533
G1 X86.167 Y103.383 E4.12551
G1 X86.283 Y102.950 E4.13870
G1 X85.010 Y101.677 E4.19163
G1 X84.140 Y101.910 E4.21810
G1 X82.868 Y100.637 E4.27103
G1 X83.101 Y99.768 E4.29750
G1 X81.867 Y98.534 E4.34880
M204 S0.0
G1 X81.867 Y101.174 F7200.000
M204 S0.0
G1 X82.500 Y101.005 E4.36808 F2901.426
G1 X83.773 Y102.277 E4.42101
G1 X83.540 Y103.147 E4.44748
G1 X83.776 Y103.383 E4.45730
M204 S0.0
G1 X82.873 Y103.594 F7200.000
M204 S0.0
G1 X82.303 Y103.747 E4.47465 F2901.426
G1 X81.867 Y103.311 E4.49279
G1 X81.867 Y104.046 E4.51440
G1 X81.936 Y104.115 E4.51727
G1 X81.867 Y104.372 E4.52510
G1 X82.871 Y106.152 E4.58520
G1 X81.867 Y105.148 E4.62694
G1 X81.867 Y105.883 E4.64855
G1 X82.608 Y106.624 E4.67938
G1 X82.375 Y107.494 E4.70585
G1 X82.869 Y107.987 E4.72639
M204 S0.0
G1 F1800.000 E3.72639
G92 E0
G1 X88.894 Y107.399 F7200.000
G1 E1.00000 F1800.000
M204 S0.0
G1 X89.893 Y108.397 E1.04153 F2901.426
G1 X89.893 Y107.662 E1.06314
G1 X89.232 Y107.001 E1.09063
G1 X89.465 Y106.132 E1.11710
G1 X88.894 Y105.562 E1.14082
G1 X89.893 Y105.748 E1.17069
G1 X89.832 Y105.764 E1.17254
G1 X88.894 Y104.827 E1.21154
M204 S0.0
G1 F1800.000 E0.21154
G92 E0
G1 X92.235 Y96.010 F7200.000
G1 E1.00000 F1800.000
G1 X92.215 Y95.990 E1.00085 F967.142
G1 X92.718 Y95.740 E1.01777 F967.142
G1 X92.988 Y96.010 E1.02927 F967.142
G1 X93.471 Y95.740 E1.04593 F967.142
G1 X93.741 Y96.010 E1.05743 F967.142
G1 X94.223 Y95.740 E1.07409 F967.142
G1 X94.493 Y96.010 E1.08559 F967.142
G1 X94.976 Y95.740 E1.10226 F967.142
G1 X95.246 Y96.010 E1.11376 F967.142
G1 X95.729 Y95.740 E1.13042 F967.142
G1 X95.999 Y96.010 E1.14192 F967.142
G1 X96.482 Y95.740 E1.15858 F967.142
G1 X96.752 Y96.010 E1.17008 F967.142
G1 X97.234 Y95.740 E1.18675 F967.142
G1 X97.504 Y96.010 E1.19825 F967.142
G1 X97.987 Y95.740 E1.21491 F967.142
G1 X98.257 Y96.010 E1.22641 F967.142
G1 X98.740 Y95.740 E1.24307 F967.142
G1 X98.760 Y95.760 E1.24392 F967.142
G1 F1800.000 E0.24392
G92 E0
G1 Z7.800 F7200.000
G1 X92.005 Y96.000 F7200.000
G1 E1.00000 F1800.000
M204 S0.0
G1 X90.260 Y96.000 E1.04938 F1524.830
G1 X90.260 Y109.482 E1.43085
G1 X89.992 Y109.750 E1.44156
G1 X89.308 Y109.750 E1.46091
G1 X89.308 Y103.750 E1.63068
G1 X82.457 Y103.750 E1.82453
G1 X82.440 Y108.278 E1.95264
G1 X82.218 Y108.327 E1.95906
G1 X81.731 Y107.281 E1.99171
G1 X81.562 Y106.650 E2.01018
G1 X81.500 Y105.945 E2.03020
G1 X81.500 Y90.250 E2.47429
G1 X92.005 Y90.250 E2.77153
G1 X92.005 Y95.925 E2.93210
M204 S0.0
G1 X92.505 Y95.250 F7200.000
M204 S0.0
G1 X99.250 Y95.250 E3.12294 F1524.830
G1 X99.250 Y96.500 E3.15830
G1 X90.760 Y96.500 E3.39853
G1 X90.760 Y109.689 E3.77171
G1 X90.199 Y110.250 E3.79414
G1 X88.808 Y110.250 E3.83350
G1 X88.808 Y104.250 E4.00326
G1 X82.955 Y104.250 E4.16888
G1 X82.938 Y109.546 E4.31872
G1 X82.493 Y109.234 E4.33409
G1 X82.245 Y108.994 E4.34386
G1 X82.002 Y108.738 E4.35383
G1 X81.572 Y108.124 E4.37507
G1 X81.259 Y107.453 E4.39601
G1 X81.067 Y106.737 E4.41696
G1 X81.000 Y105.967 E4.43884
G1 X81.000 Y89.750 E4.89769
G1 X92.505 Y89.750 E5.22322
G1 X92.505 Y95.175 E5.37671
M204 S0.0
G1 X93.005 Y94.750 F7200.000
M204 S0.0
G1 X99.750 Y94.750 E5.56756 F1270.692
G1 X99.750 Y97.000 E5.63122
G1 X91.260 Y97.000 E5.87144
G1 X91.260 Y109.896 E6.23633
G1 X90.406 Y110.750 E6.27049
G1 X88.308 Y110.750 E6.32985
G1 X88.308 Y104.750 E6.49962
G1 X83.453 Y104.750 E6.63700
G1 X83.437 Y110.401 E6.79689
G1 X82.988 Y110.176 E6.81109
G1 X82.607 Y109.944 E6.82371
G1 X82.152 Y109.601 E6.83984
G1 X81.614 Y109.055 E6.86152
G1 X81.137 Y108.375 E6.88504
G1 X80.787 Y107.624 E6.90846
G1 X80.573 Y106.825 E6.93188
G1 X80.500 Y105.989 E6.95561
G1 X80.500 Y89.250 E7.42923
G1 X92.975 Y89.250 E7.78220
M204 S0.0
M204 S0.0
M106 S255
G1 X93.005 Y89.250 E7.78304 F3600
G1 X93.005 Y94.500 E7.92887
M106 S255
M204 S0.0
M204 S0.0
G1 X93.005 Y94.675 E7.93382 F1270.692
M204 S0.0
G1 X93.005 Y95.250 F7200.000
G1 F1800.000 E6.93382
G92 E0
