
; generated by Slic3r 1.0.0 on 2014-04-21 at 15:19:18

; layer_height = 0.4
; perimeters = 3
; top_solid_layers = 0
; bottom_solid_layers = 3
; fill_density = 0.4
; perimeter_speed = 30.0
; infill_speed = 60.0
; travel_speed = 120.0
; nozzle_diameter = 0.5
; filament_diameter = 1.3
; extrusion_multiplier = 1.2
; perimeters extrusion width = 0.50mm
; infill extrusion width = 0.53mm
; solid infill extrusion width = 0.53mm
; top infill extrusion width = 0.53mm
; first layer extrusion width = 0.50mm

G21 ; set units to millimeters
M107
M104 S120 ; set temperature

M109 S120 ; wait for temperature to be reached
G90 ; use absolute coordinates
M83 ; use relative distances for extrusion
G1 Z1.750 F7200.000
G10 ; retract
G1 X25.480 Y54.640 F7200.000
G11 ; unretract
G1 X27.010 Y54.010 E0.26178 F600
G1 X28.610 Y53.630 E0.26018
G1 X30.250 Y53.500 E0.26028
G1 X69.750 Y53.500 E6.24942
G1 X71.390 Y53.630 E0.26028
G1 X72.990 Y54.010 E0.26018
G1 X74.520 Y54.640 E0.26178
G1 X75.920 Y55.510 E0.26078
G1 X77.170 Y56.580 E0.26033
G1 X78.240 Y57.830 E0.26033
G1 X79.110 Y59.230 E0.26078
G1 X79.740 Y60.760 E0.26178
G1 X80.120 Y62.360 E0.26018
G1 X80.250 Y64.000 E0.26028
G1 X80.250 Y71.110 E1.12490
G1 X80.110 Y72.800 E0.26830
G1 X79.700 Y74.450 E0.26899
G1 X74.700 Y89.340 E2.48507
G1 X74.060 Y90.850 E0.25947
G1 X73.200 Y92.230 E0.25726
G1 X72.130 Y93.470 E0.25913
G1 X70.880 Y94.520 E0.25828
G1 X69.480 Y95.370 E0.25913
G1 X67.970 Y95.990 E0.25826
G1 X66.380 Y96.370 E0.25864
G1 X64.750 Y96.500 E0.25871
G1 X35.250 Y96.500 E4.66729
G1 X34.300 Y96.460 E0.15044
G1 X33.420 Y96.380 E0.13980
G1 X32.500 Y96.250 E0.14700
G1 X31.600 Y96.050 E0.14587
G1 X30.760 Y95.820 E0.13779
G1 X29.080 Y95.200 E0.28332
G1 X28.290 Y94.830 E0.13802
G1 X26.780 Y93.960 E0.27572
G1 X26.070 Y93.470 E0.13649
G1 X25.310 Y92.900 E0.15030
G1 X24.610 Y92.250 E0.15113
G1 X24.000 Y91.640 E0.13649
G1 X22.850 Y90.290 E0.28058
G1 X22.340 Y89.570 E0.13960
G1 X21.810 Y88.730 E0.15714
G1 X21.360 Y87.850 E0.15638
G1 X21.000 Y87.060 E0.13735
G1 X20.410 Y85.450 E0.27129
G1 X20.180 Y84.600 E0.13932
G1 X19.980 Y83.660 E0.15205
G1 X19.850 Y82.710 E0.15170
G1 X19.780 Y81.850 E0.13651
G1 X19.750 Y81.000 E0.13456
G1 X19.750 Y64.000 E2.68962
G1 X19.880 Y62.360 E0.26028
G1 X20.260 Y60.760 E0.26018
G1 X20.890 Y59.230 E0.26178
G1 X21.760 Y57.830 E0.26078
G1 X22.830 Y56.580 E0.26033
G1 X24.080 Y55.510 E0.26033
G1 X25.416 Y54.680 E0.24892
G10 ; retract
G1 X52.460 Y83.750 F7200.000
G11 ; unretract
M204 S0.0
G1 X63.500 Y83.750 E1.74669 F600
G1 X63.500 Y84.750 E0.15821
G1 X52.728 Y84.750 E1.70433
G1 X52.460 Y84.482 E0.05991
G1 X52.460 Y83.825 E0.10398
M204 S0.0
G1 X51.960 Y83.250 F7200.000
M204 S0.0
G1 X64.000 Y83.250 E1.90490 F600
G1 X64.000 Y85.250 E0.31643
G1 X52.521 Y85.250 E1.81620
G1 X51.960 Y84.689 E0.12545
G1 X51.960 Y83.325 E0.21586
M204 S0.0
G1 X51.460 Y82.750 F7200.000
M204 S0.0
G1 X64.500 Y82.750 E2.06312 F600
G1 X64.500 Y85.750 E0.47464
G1 X52.313 Y85.750 E1.92807
G1 X51.460 Y84.896 E0.19098
G1 X51.460 Y82.825 E0.32773
M204 S0.0
G1 X51.893 Y83.000 F7200.000
G10 ; retract
G1 X52.460 Y74.250 F7200.000
G11 ; unretract
M204 S0.0
G1 X52.460 Y71.000 E0.51419 F600
G1 X40.260 Y71.000 E1.93020
G1 X40.260 Y84.482 E2.13307
G1 X39.992 Y84.750 E0.05991
G1 X35.304 Y84.750 E0.74180
G1 X34.599 Y84.688 E0.11194
G1 X33.970 Y84.520 E0.10302
G1 X33.378 Y84.244 E0.10329
G1 X32.842 Y83.869 E0.10354
G1 X32.381 Y83.408 E0.10305
G1 X32.007 Y82.873 E0.10341
G1 X31.731 Y82.281 E0.10328
G1 X31.562 Y81.650 E0.10329
G1 X31.500 Y80.945 E0.11195
G1 X31.500 Y65.250 E2.48322
G1 X68.500 Y65.250 E5.85389
G1 X68.500 Y70.392 E0.81346
G1 X63.500 Y73.278 E0.91345
G1 X63.500 Y74.250 E0.15373
G1 X52.535 Y74.250 E1.73482
M204 S0.0
G1 X51.960 Y74.750 F7200.000
M204 S0.0
G1 X51.960 Y71.500 E0.51419 F600
G1 X40.760 Y71.500 E1.77199
G1 X40.760 Y84.689 E2.08673
G1 X40.199 Y85.250 E0.12545
G1 X35.282 Y85.250 E0.77802
G1 X34.512 Y85.183 E0.12232
G1 X33.798 Y84.991 E0.11687
G1 X33.127 Y84.679 E0.11713
G1 X32.519 Y84.253 E0.11738
G1 X31.997 Y83.731 E0.11689
G1 X31.572 Y83.124 E0.11725
G1 X31.259 Y82.453 E0.11713
G1 X31.067 Y81.737 E0.11713
G1 X31.000 Y80.967 E0.12232
G1 X31.000 Y64.750 E2.56578
G1 X69.000 Y64.750 E6.01210
G1 X69.000 Y70.680 E0.93823
G1 X64.000 Y73.567 E0.91345
G1 X64.000 Y74.750 E0.18717
G1 X52.035 Y74.750 E1.89304
M204 S0.0
G1 X51.460 Y75.250 F7200.000
M204 S0.0
G1 X51.460 Y72.000 E0.51419 F600
G1 X41.260 Y72.000 E1.61377
G1 X41.260 Y84.896 E2.04039
G1 X40.406 Y85.750 E0.19098
G1 X35.260 Y85.750 E0.81424
G1 X34.424 Y85.677 E0.13269
G1 X33.626 Y85.463 E0.13071
G1 X32.876 Y85.113 E0.13097
G1 X32.197 Y84.638 E0.13122
G1 X31.612 Y84.053 E0.13073
G1 X31.137 Y83.375 E0.13109
G1 X30.787 Y82.624 E0.13097
G1 X30.573 Y81.825 E0.13098
G1 X30.500 Y80.989 E0.13270
G1 X30.500 Y64.250 E2.64834
G1 X69.500 Y64.250 E6.17031
G1 X69.500 Y70.969 E1.06301
G1 X64.500 Y73.856 E0.91345
G1 X64.500 Y75.250 E0.22060
G1 X51.535 Y75.250 E2.05125
M204 S0.0
G1 X51.710 Y74.817 F7200.000
G1 X53.097 Y73.884 F7200.000
M204 S0.0
G1 X52.826 Y73.613 E0.06883 F600
G1 X52.826 Y72.810 E0.14424
G1 X53.900 Y73.884 E0.27282
G1 X54.703 Y73.884 E0.14424
G1 X52.826 Y72.007 E0.47681
G1 X52.826 Y71.204 E0.14424
G1 X55.506 Y73.884 E0.68080
M204 S0.0
G1 X68.114 Y65.616 F7200.000
M204 S0.0
G1 X68.134 Y65.636 E0.00507 F600
G1 X68.134 Y66.439 E0.14424
G1 X67.311 Y65.616 E0.20905
G1 X66.508 Y65.616 E0.14424
G1 X68.134 Y67.242 E0.41304
G1 X68.134 Y68.045 E0.14424
G1 X65.705 Y65.616 E0.61703
G1 X64.902 Y65.616 E0.14424
G1 X68.134 Y68.848 E0.82102
G1 X68.134 Y69.651 E0.14424
G1 X64.099 Y65.616 E1.02501
G1 X63.296 Y65.616 E0.14424
G1 X67.960 Y70.280 E1.18495
G1 X67.451 Y70.574 E0.10559
G1 X62.493 Y65.616 E1.25961
G1 X61.691 Y65.616 E0.14424
G1 X66.942 Y70.868 E1.33428
G1 X66.433 Y71.162 E0.10559
G1 X60.888 Y65.616 E1.40895
G1 X60.085 Y65.616 E0.14424
G1 X65.924 Y71.456 E1.48361
G1 X65.415 Y71.750 E0.10559
G1 X59.282 Y65.616 E1.55828
G1 X58.479 Y65.616 E0.14424
G1 X64.906 Y72.044 E1.63294
G1 X64.397 Y72.337 E0.10559
G1 X57.676 Y65.616 E1.70761
G1 X56.873 Y65.616 E0.14424
G1 X63.888 Y72.631 E1.78228
G1 X63.379 Y72.925 E0.10559
G1 X56.070 Y65.616 E1.85694
G1 X55.267 Y65.616 E0.14424
G1 X63.134 Y73.483 E1.99859
G1 X62.732 Y73.884 E0.10199
G1 X54.464 Y65.616 E2.10048
G1 X53.661 Y65.616 E0.14424
G1 X61.929 Y73.884 E2.10048
G1 X61.126 Y73.884 E0.14424
G1 X52.859 Y65.616 E2.10048
G1 X52.056 Y65.616 E0.14424
G1 X60.323 Y73.884 E2.10048
G1 X59.520 Y73.884 E0.14424
G1 X51.253 Y65.616 E2.10048
G1 X50.450 Y65.616 E0.14424
G1 X58.717 Y73.884 E2.10048
G1 X57.914 Y73.884 E0.14424
G1 X49.647 Y65.616 E2.10048
G1 X48.844 Y65.616 E0.14424
G1 X57.112 Y73.884 E2.10048
G1 X56.309 Y73.884 E0.14424
G1 X48.041 Y65.616 E2.10048
G1 X47.238 Y65.616 E0.14424
G1 X52.256 Y70.634 E1.27478
G1 X51.453 Y70.634 E0.14424
G1 X46.435 Y65.616 E1.27478
G1 X45.632 Y65.616 E0.14424
G1 X50.650 Y70.634 E1.27478
G1 X49.847 Y70.634 E0.14424
G1 X44.829 Y65.616 E1.27478
G1 X44.027 Y65.616 E0.14424
G1 X49.044 Y70.634 E1.27478
G1 X48.241 Y70.634 E0.14424
G1 X43.224 Y65.616 E1.27478
G1 X42.421 Y65.616 E0.14424
G1 X47.438 Y70.634 E1.27478
G1 X46.635 Y70.634 E0.14424
G1 X41.618 Y65.616 E1.27478
G1 X40.815 Y65.616 E0.14424
G1 X45.832 Y70.634 E1.27478
G1 X45.030 Y70.634 E0.14424
G1 X40.012 Y65.616 E1.27478
G1 X39.209 Y65.616 E0.14424
G1 X44.227 Y70.634 E1.27478
G1 X43.424 Y70.634 E0.14424
G1 X38.406 Y65.616 E1.27478
G1 X37.603 Y65.616 E0.14424
G1 X42.621 Y70.634 E1.27478
G1 X41.818 Y70.634 E0.14424
G1 X36.800 Y65.616 E1.27478
G1 X35.997 Y65.616 E0.14424
G1 X41.015 Y70.634 E1.27478
G1 X40.212 Y70.634 E0.14424
G1 X35.194 Y65.616 E1.27478
G1 X34.392 Y65.616 E0.14424
G1 X39.894 Y71.118 E1.39789
G1 X39.894 Y71.921 E0.14424
G1 X33.589 Y65.616 E1.60188
G1 X32.786 Y65.616 E0.14424
G1 X39.894 Y72.724 E1.80586
G1 X39.894 Y73.527 E0.14424
G1 X31.983 Y65.616 E2.00985
G1 X31.866 Y66.302 E0.12506
G1 X39.894 Y74.330 E2.03948
G1 X39.894 Y75.133 E0.14424
G1 X31.866 Y67.105 E2.03948
G1 X31.866 Y67.908 E0.14424
G1 X39.894 Y75.936 E2.03948
G1 X39.894 Y76.739 E0.14424
G1 X31.866 Y68.711 E2.03948
G1 X31.866 Y69.514 E0.14424
G1 X39.894 Y77.542 E2.03948
G1 X39.894 Y78.345 E0.14424
G1 X31.866 Y70.317 E2.03948
G1 X31.866 Y71.120 E0.14424
G1 X39.894 Y79.147 E2.03948
G1 X39.894 Y79.950 E0.14424
G1 X31.866 Y71.923 E2.03948
G1 X31.866 Y72.726 E0.14424
G1 X39.894 Y80.753 E2.03948
G1 X39.894 Y81.556 E0.14424
G1 X31.866 Y73.529 E2.03948
G1 X31.866 Y74.332 E0.14424
G1 X39.894 Y82.359 E2.03948
G1 X39.894 Y83.162 E0.14424
G1 X31.866 Y75.135 E2.03948
G1 X31.866 Y75.937 E0.14424
G1 X39.894 Y83.965 E2.03948
G1 X39.510 Y84.384 E0.10209
G1 X31.866 Y76.740 E1.94191
G1 X31.866 Y77.543 E0.14424
G1 X38.707 Y84.384 E1.73792
G1 X37.904 Y84.384 E0.14424
G1 X31.866 Y78.346 E1.53393
G1 X31.866 Y79.149 E0.14424
G1 X37.101 Y84.384 E1.32994
G1 X36.298 Y84.384 E0.14424
G1 X31.866 Y79.952 E1.12595
G1 X31.866 Y80.755 E0.14424
G1 X35.495 Y84.384 E0.92196
G1 X34.624 Y84.316 E0.15688
G1 X31.934 Y81.626 E0.68349
M204 S0.0
G1 X32.630 Y83.125 F7200.000
M204 S0.0
G1 X33.125 Y83.620 E0.12587 F600
M204 S0.0
G10 ; retract
G1 X52.960 Y84.250 F7200.000
G11 ; unretract
G1 X53.667 Y84.240 E0.11348 F600
G1 X53.687 Y84.260 E0.00454 F600
G1 X54.384 Y84.240 E0.11191 F600
G1 X54.404 Y84.260 E0.00454 F600
G1 X55.101 Y84.240 E0.11191 F600
G1 X55.121 Y84.260 E0.00454 F600
G1 X55.818 Y84.240 E0.11191 F600
G1 X55.838 Y84.260 E0.00454 F600
G1 X56.536 Y84.240 E0.11191 F600
G1 X56.556 Y84.260 E0.00454 F600
G1 X57.253 Y84.240 E0.11191 F600
G1 X57.273 Y84.260 E0.00454 F600
G1 X57.970 Y84.240 E0.11191 F600
G1 X57.990 Y84.260 E0.00454 F600
G1 X58.687 Y84.240 E0.11191 F600
G1 X58.707 Y84.260 E0.00454 F600
G1 X59.404 Y84.240 E0.11191 F600
G1 X59.424 Y84.260 E0.00454 F600
G1 X60.121 Y84.240 E0.11191 F600
G1 X60.141 Y84.260 E0.00454 F600
G1 X60.839 Y84.240 E0.11191 F600
G1 X60.859 Y84.260 E0.00454 F600
G1 X61.556 Y84.240 E0.11191 F600
G1 X61.576 Y84.260 E0.00454 F600
G1 X62.273 Y84.240 E0.11191 F600
G1 X62.293 Y84.260 E0.00454 F600
G1 X62.990 Y84.240 E0.11191 F600
G1 X63.000 Y84.250 E0.00227 F600
G1 X52.970 Y84.260 F7200.000
G1 X52.960 Y84.250 E0.00227 F600
M106 S255
M104 S110 ; set temperature
G1 Z2.150 F7200.000
G1 X52.460 Y84.482 F7200.000
M204 S0.0
G1 X52.460 Y83.750 E0.13240 F1639.656
G1 X63.500 Y83.750 E1.99622
G1 X63.500 Y84.750 E0.18082
G1 X52.728 Y84.750 E1.94780
G1 X52.513 Y84.535 E0.05491
M204 S0.0
G1 X51.960 Y84.689 F7200.000
M204 S0.0
G1 X51.960 Y83.250 E0.26025 F1639.656
G1 X64.000 Y83.250 E2.17703
G1 X64.000 Y85.250 E0.36163
G1 X52.521 Y85.250 E2.07566
G1 X52.013 Y84.742 E0.12981
M204 S0.0
G1 X51.460 Y84.896 F7200.000
M204 S0.0
G1 X51.460 Y82.750 E0.38811 F1639.656
G1 X64.500 Y82.750 E2.35785
G1 X64.500 Y85.750 E0.54245
G1 X52.313 Y85.750 E2.20351
G1 X51.513 Y84.949 E0.20470
M204 S0.0
G1 X51.813 Y84.543 F7200.000
G10 ; retract
G1 X52.460 Y74.250 F7200.000
G11 ; unretract
M204 S0.0
G1 X52.460 Y71.000 E0.58765 F1639.656
G1 X40.260 Y71.000 E2.20594
G1 X40.260 Y84.482 E2.43779
G1 X39.992 Y84.750 E0.06847
G1 X35.301 Y84.750 E0.84816
G1 X34.597 Y84.688 E0.12790
G1 X33.971 Y84.521 E0.11710
G1 X33.379 Y84.245 E0.11804
G1 X32.841 Y83.868 E0.11894
G1 X32.382 Y83.409 E0.11717
G1 X32.007 Y82.873 E0.11848
G1 X31.731 Y82.281 E0.11804
G1 X31.562 Y81.650 E0.11805
G1 X31.500 Y80.945 E0.12794
G1 X31.500 Y65.250 E2.83797
G1 X68.500 Y65.250 E6.69016
G1 X68.500 Y70.392 E0.92966
G1 X63.500 Y73.278 E1.04394
G1 X63.500 Y74.250 E0.17570
G1 X52.535 Y74.250 E1.98266
M204 S0.0
G1 X51.960 Y74.750 F7200.000
M204 S0.0
G1 X51.960 Y71.500 E0.58765 F1639.656
G1 X40.760 Y71.500 E2.02513
G1 X40.760 Y84.689 E2.38483
G1 X40.199 Y85.250 E0.14337
G1 X35.280 Y85.250 E0.88956
G1 X34.510 Y85.183 E0.13976
G1 X33.799 Y84.992 E0.13292
G1 X33.128 Y84.680 E0.13387
G1 X32.518 Y84.252 E0.13476
G1 X31.998 Y83.732 E0.13299
G1 X31.572 Y83.124 E0.13430
G1 X31.259 Y82.453 E0.13386
G1 X31.067 Y81.737 E0.13387
G1 X31.000 Y80.967 E0.13980
G1 X31.000 Y64.750 E2.93232
G1 X69.000 Y64.750 E6.87097
G1 X69.000 Y70.680 E1.07227
G1 X64.000 Y73.567 E1.04394
G1 X64.000 Y74.750 E0.21391
G1 X52.035 Y74.750 E2.16347
M204 S0.0
G1 X51.460 Y75.250 F7200.000
M204 S0.0
G1 X51.460 Y72.000 E0.58765 F1366.380
G1 X41.260 Y72.000 E1.84431
G1 X41.260 Y84.896 E2.33187
G1 X40.406 Y85.750 E0.21826
G1 X35.258 Y85.750 E0.93095
G1 X34.431 Y85.679 E0.15008
G1 X33.628 Y85.464 E0.15029
G1 X32.872 Y85.111 E0.15087
G1 X32.195 Y84.637 E0.14941
G1 X31.613 Y84.055 E0.14881
G1 X31.137 Y83.375 E0.15012
G1 X30.787 Y82.624 E0.14968
G1 X30.573 Y81.825 E0.14969
G1 X30.500 Y80.989 E0.15165
G1 X30.500 Y64.250 E3.02668
G1 X69.500 Y64.250 E7.05179
G1 X69.500 Y70.969 E1.21487
G1 X64.500 Y73.856 E1.04394
G1 X64.500 Y75.250 E0.25212
G1 X51.535 Y75.250 E2.34429
M204 S0.0
G1 X51.710 Y74.817 F7200.000
G1 X61.450 Y73.893 F7200.000
M204 S0.0
G1 X68.143 Y67.200 E1.79672 F3279.311
G1 X68.143 Y66.458 E0.14092
G1 X60.708 Y73.893 E1.99600
G1 X59.966 Y73.893 E0.14092
G1 X68.143 Y65.716 E2.19529
G1 X67.509 Y65.607 E0.12204
G1 X59.223 Y73.893 E2.22447
G1 X58.481 Y73.893 E0.14092
G1 X66.767 Y65.607 E2.22447
G1 X66.025 Y65.607 E0.14092
G1 X57.739 Y73.893 E2.22447
G1 X56.996 Y73.893 E0.14092
G1 X65.282 Y65.607 E2.22447
G1 X64.540 Y65.607 E0.14092
G1 X56.254 Y73.893 E2.22447
G1 X55.512 Y73.893 E0.14092
G1 X63.798 Y65.607 E2.22447
G1 X63.055 Y65.607 E0.14092
G1 X54.769 Y73.893 E2.22447
G1 X54.027 Y73.893 E0.14092
G1 X62.313 Y65.607 E2.22447
G1 X61.571 Y65.607 E0.14092
G1 X53.284 Y73.893 E2.22447
G1 X52.817 Y73.618 E0.10296
G1 X60.828 Y65.607 E2.15074
G1 X60.086 Y65.607 E0.14092
G1 X52.817 Y72.876 E1.95145
G1 X52.817 Y72.134 E0.14092
G1 X59.344 Y65.607 E1.75217
G1 X58.601 Y65.607 E0.14092
G1 X52.817 Y71.391 E1.55288
G1 X52.817 Y70.649 E0.14092
G1 X57.859 Y65.607 E1.35359
G1 X57.117 Y65.607 E0.14092
G1 X52.080 Y70.643 E1.35199
G1 X51.338 Y70.643 E0.14092
G1 X56.374 Y65.607 E1.35199
G1 X55.632 Y65.607 E0.14092
G1 X50.596 Y70.643 E1.35199
G1 X49.853 Y70.643 E0.14092
G1 X54.890 Y65.607 E1.35199
G1 X54.147 Y65.607 E0.14092
G1 X49.111 Y70.643 E1.35199
G1 X48.369 Y70.643 E0.14092
G1 X53.405 Y65.607 E1.35199
G1 X52.663 Y65.607 E0.14092
G1 X47.626 Y70.643 E1.35199
G1 X46.884 Y70.643 E0.14092
G1 X51.920 Y65.607 E1.35199
G1 X51.178 Y65.607 E0.14092
G1 X46.142 Y70.643 E1.35199
G1 X45.399 Y70.643 E0.14092
G1 X50.435 Y65.607 E1.35199
G1 X49.693 Y65.607 E0.14092
G1 X44.657 Y70.643 E1.35199
G1 X43.915 Y70.643 E0.14092
G1 X48.951 Y65.607 E1.35199
G1 X48.208 Y65.607 E0.14092
G1 X43.172 Y70.643 E1.35199
G1 X42.430 Y70.643 E0.14092
G1 X47.466 Y65.607 E1.35199
G1 X46.724 Y65.607 E0.14092
G1 X41.688 Y70.643 E1.35199
G1 X40.945 Y70.643 E0.14092
G1 X45.981 Y65.607 E1.35199
G1 X45.239 Y65.607 E0.14092
G1 X31.857 Y78.989 E3.59251
G1 X31.857 Y79.731 E0.14092
G1 X39.903 Y71.685 E2.16002
G1 X39.903 Y72.428 E0.14092
G1 X31.857 Y80.474 E2.16002
G1 X31.880 Y81.193 E0.13662
G1 X39.903 Y73.170 E2.15383
G1 X39.903 Y73.912 E0.14092
G1 X31.981 Y81.835 E2.12681
G1 X32.173 Y82.385 E0.11061
G1 X39.903 Y74.655 E2.07519
G1 X39.903 Y75.397 E0.14092
G1 X32.436 Y82.864 E2.00452
G1 X32.767 Y83.275 E0.10023
G1 X39.903 Y76.139 E1.91566
G1 X39.903 Y76.882 E0.14092
G1 X33.142 Y83.643 E1.81505
G1 X33.582 Y83.945 E0.10133
G1 X39.903 Y77.624 E1.69698
G1 X39.903 Y78.366 E0.14092
G1 X34.088 Y84.181 E1.56108
G1 X34.675 Y84.337 E0.11525
G1 X39.903 Y79.109 E1.40352
G1 X39.903 Y79.851 E0.14092
G1 X35.361 Y84.393 E1.21932
G1 X36.103 Y84.393 E0.14092
G1 X39.903 Y80.593 E1.02003
G1 X39.903 Y81.336 E0.14092
G1 X36.846 Y84.393 E0.82074
G1 X37.588 Y84.393 E0.14092
G1 X39.903 Y82.078 E0.62146
G1 X39.903 Y82.821 E0.14092
G1 X38.330 Y84.393 E0.42217
G1 X39.073 Y84.393 E0.14092
G1 X39.903 Y83.563 E0.22288
G1 X39.903 Y84.305 E0.14092
G1 X39.815 Y84.393 E0.02360
M204 S0.0
G1 X31.857 Y78.247 F7200.000
M204 S0.0
G1 X44.497 Y65.607 E3.39322 F3279.311
G1 X43.754 Y65.607 E0.14092
G1 X31.857 Y77.504 E3.19394
G1 X31.857 Y76.762 E0.14092
G1 X43.012 Y65.607 E2.99465
G1 X42.270 Y65.607 E0.14092
G1 X31.857 Y76.020 E2.79536
G1 X31.857 Y75.277 E0.14092
G1 X41.527 Y65.607 E2.59608
G1 X40.785 Y65.607 E0.14092
G1 X31.857 Y74.535 E2.39679
G1 X31.857 Y73.793 E0.14092
G1 X40.043 Y65.607 E2.19750
